!!!OTL: MEI SCHATZ IS E REITER
!!!ARE: Europa, Mitteleuropa, Deutschland, Hessen, Nassau
!!!SCT: E1055A
!!!YEM: Copyright 1995, estate of Helmut Schaffrath.
**kern
*ICvox
*Ivox
*M3/8
*k[b-]
*F:
{8F
=1
8A
8G
8A
=2
8B-
8G
16G
16A
=3
8B-
8A
8B-
=4
4c}
{16A
16B-
=5
8c
8c
8c
=6
8d
8d
8d
=7
8e
8e
8e
=8
4f}
==
!!!AGN: Tanz - Lied, Jodler
!!!ONB: ESAC (Essen Associative Code) Database: ERK3
!!!AMT: simple triple
!!!AIN: vox
!!!EED: Helmut Schaffrath
!!!EEV: 1.0
*-
